!! 00000] TT[WS
!!!OTL: Jiefu huan xiaoyi
!!!ARE: Asia, China, Shanxi Liulin
!! Ethnic Group: Han
!! WII, 74 (2)
!!!SCT: J0508
!!!YEM: Copyright 1995, estate of Helmut Schaffrath.
**kern
*ICvox
*Ivox
*M2/4
*k[b-]
*F:
{8ff
8ee
8dd
8cc
=1
8ff
8ee
8dd
8cc
=2
8a
8cc
8a
8g
=3
2f}
=4
{8cc
8cc
8dd
8cc
=5
8.dd
16cc
8a
8g
=6
8f
8d
8c
8d
=7
2c}
==
!!!AGN: Xiaodiao. Qingge
!!!ONB: ESAC (Essen Associative Code) Database: CHINA
!!!AMT: simple duple
!!!AIN: vox
!!!EED: Helmut Schaffrath
!!!EEV: 1.0
*-
